X: 17687
T: Hollybank, The
R: hornpipe
M: 4/4
K: Gmajor
|:d>c|B>^AB>d c>DF>A|(3GFG B>d g>dB>d|e>Gc>e d>GB>d|(3cdc (3BcB A2 d>c|
B>^AB>d c>DF>A|(3GFG B>d g>dB>d|e>Gc>e d>gf>e|(3ded (3cBA G2:|
|:d2|g2 f>g d>GB>d|(3efe ^d>e g>Gc>e|d2 ^c>d g>GB>d|(3cdc (3BcB A2 (3def|
g2 f>g d>GB>d|(3efe ^d>e g>Gc>e|d>gd>B c>gf>e|(3ded (3cBA G2:|

